packages/icon/src/svg/volume-high.icon.svg

<svg width="24" height="24" viewBox="0 0 24 24" fill="none" xmlns="http://www.w3.org/2000/svg">
<path fill-rule="evenodd" clip-rule="evenodd" d="M7 7.99995L12.1465 2.85347C12.3417 2.65822 12.6583 2.65822 12.8535 2.85347C12.9473 2.94728 13 3.07442 13 3.20705V20.7929C13 21.069 12.7761 21.2929 12.5 21.2929C12.3674 21.2929 12.2402 21.2401 12.1465 21.1464L7 16H4C3.44775 16 3 15.5522 3 15V8.99995C3 8.44765 3.44775 7.99995 4 7.99995H7ZM15 20.6054C19.0079 19.6959 22 16.1116 22 11.8284C22 7.54518 19.0079 3.96083 15 3.05141V5.11824C17.8915 5.97878 20 8.65736 20 11.8284C20 14.9994 17.8915 17.678 15 18.5385V20.6054ZM15 16.4124C16.7659 15.6408 18 13.8787 18 11.8284C18 9.77809 16.7659 8.01595 15 7.2444V9.5923C15.6138 10.1416 16 10.9399 16 11.8284C16 12.7169 15.6138 13.5152 15 14.0645V16.4124ZM5 14V9.99995H8L11 6.82838V16.8284L8 14H5Z" fill="white"/>
</svg>

<svg aria-label="volume high icon" viewBox="0 0 24 24"><path fill-rule="evenodd" clip-rule="evenodd" d="M7 8l5.146-5.147a.5.5 0 01.854.354v17.586a.5.5 0 01-.854.353L7 16H4a1 1 0 01-1-1V9a1 1 0 011-1h3zm8 12.605a9.003 9.003 0 000-17.554v2.067a7.003 7.003 0 010 13.42v2.067zm0-4.193a5.001 5.001 0 000-9.168v2.348c.614.55 1 1.348 1 2.236 0 .889-.386 1.687-1 2.237v2.347zM5 14v-4h3l3-3.172v10L8 14H5z"/></svg>
